packages/assets/static/images/icons/doc-docx.svg

<svg width="24" height="24" viewBox="0 0 24 24" xmlns="http://www.w3.org/2000/svg">
<path d="M4.875 13.5H3.375C3.17609 13.5 2.98532 13.579 2.84467 13.7197C2.70402 13.8603 2.625 14.0511 2.625 14.25V19.5C2.625 19.6989 2.70402 19.8897 2.84467 20.0303C2.98532 20.171 3.17609 20.25 3.375 20.25H4.875C5.77011 20.25 6.62855 19.8944 7.26149 19.2615C7.89442 18.6285 8.25 17.7701 8.25 16.875C8.25 15.9799 7.89442 15.1215 7.26149 14.4885C6.62855 13.8556 5.77011 13.5 4.875 13.5ZM4.875 18.75H4.125V15H4.875C5.37228 15 5.84919 15.1975 6.20083 15.5492C6.55246 15.9008 6.75 16.3777 6.75 16.875C6.75 17.3723 6.55246 17.8492 6.20083 18.2008C5.84919 18.5525 5.37228 18.75 4.875 18.75ZM20.7684 18.2897C20.9121 18.4272 20.9953 18.6161 20.9997 18.815C21.0041 19.0138 20.9294 19.2063 20.7919 19.35C20.5307 19.6311 20.2149 19.8559 19.8638 20.0107C19.5127 20.1655 19.1337 20.2469 18.75 20.25C17.0953 20.25 15.75 18.7359 15.75 16.875C15.75 15.0141 17.0953 13.5 18.75 13.5C19.1337 13.5031 19.5127 13.5845 19.8638 13.7393C20.2149 13.8941 20.5307 14.1189 20.7919 14.4C20.9264 14.5443 20.9986 14.7357 20.993 14.9329C20.9874 15.13 20.9043 15.317 20.7618 15.4534C20.6193 15.5897 20.4288 15.6644 20.2316 15.6613C20.0344 15.6583 19.8463 15.5776 19.7081 15.4369C19.5864 15.3029 19.4387 15.1951 19.274 15.12C19.1092 15.0449 18.931 15.0041 18.75 15C17.9231 15 17.25 15.8438 17.25 16.875C17.25 17.9062 17.9231 18.75 18.75 18.75C18.931 18.7459 19.1092 18.7051 19.274 18.63C19.4387 18.5549 19.5864 18.4471 19.7081 18.3131C19.8456 18.1694 20.0346 18.0862 20.2334 18.0818C20.4323 18.0774 20.6247 18.1522 20.7684 18.2897ZM12 13.5C10.3453 13.5 9 15.0141 9 16.875C9 18.7359 10.3453 20.25 12 20.25C13.6547 20.25 15 18.7359 15 16.875C15 15.0141 13.6547 13.5 12 13.5ZM12 18.75C11.1731 18.75 10.5 17.9062 10.5 16.875C10.5 15.8438 11.1731 15 12 15C12.8269 15 13.5 15.8438 13.5 16.875C13.5 17.9062 12.8269 18.75 12 18.75ZM4.5 11.25C4.69891 11.25 4.88968 11.171 5.03033 11.0303C5.17098 10.8897 5.25 10.6989 5.25 10.5V3.75H13.5V8.25C13.5 8.44891 13.579 8.63968 13.7197 8.78033C13.8603 8.92098 14.0511 9 14.25 9H18.75V10.5C18.75 10.6989 18.829 10.8897 18.9697 11.0303C19.1103 11.171 19.3011 11.25 19.5 11.25C19.6989 11.25 19.8897 11.171 20.0303 11.0303C20.171 10.8897 20.25 10.6989 20.25 10.5V8.25C20.2501 8.15148 20.2307 8.05391 20.1931 7.96286C20.1555 7.87182 20.1003 7.78908 20.0306 7.71938L14.7806 2.46938C14.7109 2.39975 14.6282 2.34454 14.5371 2.3069C14.4461 2.26926 14.3485 2.24992 14.25 2.25H5.25C4.85218 2.25 4.47064 2.40804 4.18934 2.68934C3.90804 2.97064 3.75 3.35218 3.75 3.75V10.5C3.75 10.6989 3.82902 10.8897 3.96967 11.0303C4.11032 11.171 4.30109 11.25 4.5 11.25ZM15 4.81031L17.6897 7.5H15V4.81031Z"/>
</svg>

<svg viewBox="0 0 24 24" xmlns="http://www.w3.org/2000/svg" aria-hidden="true" fill="currentColor"><path d="M4.875 13.5h-1.5a.75.75 0 0 0-.75.75v5.25a.75.75 0 0 0 .75.75h1.5a3.375 3.375 0 0 0 0-6.75m0 5.25h-.75V15h.75a1.875 1.875 0 1 1 0 3.75m15.893-.46a.75.75 0 0 1 .024 1.06 2.82 2.82 0 0 1-2.042.9c-1.655 0-3-1.514-3-3.375s1.345-3.375 3-3.375a2.82 2.82 0 0 1 2.042.9.75.75 0 0 1-1.084 1.037A1.33 1.33 0 0 0 18.75 15c-.827 0-1.5.844-1.5 1.875s.673 1.875 1.5 1.875a1.34 1.34 0 0 0 .958-.437.75.75 0 0 1 1.06-.023M12 13.5c-1.655 0-3 1.514-3 3.375s1.345 3.375 3 3.375 3-1.514 3-3.375-1.345-3.375-3-3.375m0 5.25c-.827 0-1.5-.844-1.5-1.875S11.173 15 12 15s1.5.844 1.5 1.875-.673 1.875-1.5 1.875m-7.5-7.5a.75.75 0 0 0 .75-.75V3.75h8.25v4.5a.75.75 0 0 0 .75.75h4.5v1.5a.75.75 0 1 0 1.5 0V8.25a.75.75 0 0 0-.22-.53l-5.25-5.25a.75.75 0 0 0-.53-.22h-9a1.5 1.5 0 0 0-1.5 1.5v6.75a.75.75 0 0 0 .75.75M15 4.81l2.69 2.69H15z"/></svg>
